public/svg/broker-info-two.svg

<svg width="70" height="70" viewBox="0 0 70 70" fill="none" xmlns="http://www.w3.org/2000/svg">
<path d="M47.9491 32.6201C47.5291 32.6201 47.1791 32.6201 46.7591 32.6901V20.8601H47.9491C48.4391 20.8601 48.8591 20.5801 49.0691 20.0901C49.2091 19.6001 49.0691 19.1101 48.7191 18.7601L34.5791 7.07012C34.1591 6.72012 33.5291 6.72012 33.0391 7.07012L18.9691 18.8301C18.6191 19.1801 18.4791 19.6701 18.6191 20.1601C18.7591 20.6501 19.2491 20.9301 19.7391 20.9301H20.9291V35.0001C20.9291 35.6301 21.4891 36.1901 22.1191 36.1901H26.8091H31.4991H38.2191C36.2591 37.8001 34.7191 39.9001 33.7391 42.2801C32.6191 41.3701 31.2191 40.8801 29.7491 40.8801C26.1791 40.8801 23.3091 43.7501 23.3091 47.3201C23.3091 48.8601 23.8691 50.3301 24.7791 51.4501H20.9291V47.9501V43.2601C20.9291 42.6301 20.3691 42.0701 19.7391 42.0701H7.97906C7.34906 42.0701 6.78906 42.6301 6.78906 43.2601V47.9501V52.6401V57.3301V62.0201C6.78906 62.6501 7.34906 63.2101 7.97906 63.2101H19.7391H31.4991C32.1291 63.2101 32.6891 62.6501 32.6891 62.0201V57.3301V53.0601C32.9691 52.9201 33.1791 52.7801 33.4591 52.6401C35.4191 58.8001 41.2291 63.2101 48.0191 63.2101C56.4191 63.2101 63.2791 56.3501 63.2791 47.9501C63.2091 39.4801 56.3491 32.6201 47.9491 32.6201ZM33.8091 9.45012L44.6591 18.4801H22.9591L33.8091 9.45012ZM30.3091 33.8101H27.9291V27.9301C27.9291 27.3001 28.4891 26.7401 29.1191 26.7401C29.7491 26.7401 30.3091 27.3001 30.3091 27.9301V33.8101ZM32.6191 33.8101V27.9301C32.6191 25.9701 31.0091 24.4301 29.1191 24.4301C27.1591 24.4301 25.6191 26.0401 25.6191 27.9301V33.8101H23.2391V20.8601H44.3791V33.0401C43.5391 33.2501 42.7691 33.4601 42.0691 33.8101H32.6191ZM25.6191 47.3201C25.6191 45.0801 27.4391 43.1901 29.7491 43.1901C31.9891 43.1901 33.8791 45.0101 33.8791 47.3201C33.8791 49.5601 32.0591 51.4501 29.7491 51.4501C27.4391 51.4501 25.6191 49.6301 25.6191 47.3201ZM18.5491 51.4501H9.09906V49.0701H18.4791V51.4501H18.5491ZM9.09906 53.8301H18.4791V56.2101H9.09906V53.8301ZM9.09906 44.3801H18.4791V46.7601H9.09906V44.3801ZM9.09906 58.5201H18.4791V60.9001H9.09906V58.5201ZM30.3091 60.9001H20.8591V58.5201H30.2391V60.9001H30.3091ZM30.3091 53.8301V56.2101H20.8591V53.8301H30.3091ZM47.9491 60.9001C41.7191 60.9001 36.5391 56.4901 35.2791 50.6101C35.8391 49.6301 36.1891 48.5101 36.1891 47.3201C36.1891 46.2701 35.9091 45.2901 35.4891 44.4501C37.0291 38.9901 41.9991 35.0001 47.9491 35.0001C55.0891 35.0001 60.8991 40.8101 60.8991 47.9501C60.8991 55.0901 55.0891 60.9001 47.9491 60.9001ZM52.4991 42.6301L45.4291 54.4601C45.2191 54.8101 44.7991 55.0201 44.4491 55.0201C44.2391 55.0201 44.0291 54.9501 43.8191 54.8801C43.2591 54.5301 43.0491 53.8301 43.3991 53.2701L50.4691 41.5101C50.8191 40.9501 51.5191 40.7401 52.0791 41.0901C52.6391 41.3701 52.7791 42.1401 52.4991 42.6301ZM45.5691 44.3801C45.5691 42.4201 43.9591 40.8801 42.0691 40.8801C40.1791 40.8801 38.5691 42.4901 38.5691 44.3801C38.5691 46.2701 40.1791 47.8801 42.0691 47.8801C43.9591 47.8801 45.5691 46.3401 45.5691 44.3801ZM42.0691 45.5701C41.4391 45.5701 40.8791 45.0101 40.8791 44.3801C40.8791 43.7501 41.4391 43.1901 42.0691 43.1901C42.6991 43.1901 43.2591 43.7501 43.2591 44.3801C43.2591 45.0101 42.6991 45.5701 42.0691 45.5701ZM53.8291 47.9501C51.8691 47.9501 50.3291 49.5601 50.3291 51.4501C50.3291 53.4101 51.9391 54.9501 53.8291 54.9501C55.7191 54.9501 57.3291 53.3401 57.3291 51.4501C57.3291 49.4901 55.7891 47.9501 53.8291 47.9501ZM53.8291 52.6401C53.1991 52.6401 52.6391 52.0801 52.6391 51.4501C52.6391 50.8201 53.1991 50.2601 53.8291 50.2601C54.4591 50.2601 55.0191 50.8201 55.0191 51.4501C55.0191 52.1501 54.4591 52.6401 53.8291 52.6401ZM40.8791 24.4301H36.1891C35.5591 24.4301 34.9991 24.9901 34.9991 25.6201V30.3101C34.9991 30.9401 35.5591 31.5001 36.1891 31.5001H40.8791C41.5091 31.5001 42.0691 30.9401 42.0691 30.3101V25.6201C42.0691 24.9201 41.5091 24.4301 40.8791 24.4301ZM39.6891 29.1201H37.3091V26.7401H39.6891V29.1201Z" fill="currentColor"/>
</svg>

<svg xmlns="http://www.w3.org/2000/svg" width="70" height="70" fill="none"><path fill="currentColor" d="M47.95 32.62c-.42 0-.77 0-1.19.07V20.86h1.19c.49 0 .91-.28 1.12-.77.14-.49 0-.98-.35-1.33L34.58 7.07c-.42-.35-1.05-.35-1.54 0L18.97 18.83c-.35.35-.49.84-.35 1.33s.63.77 1.12.77h1.19V35c0 .63.56 1.19 1.19 1.19h16.1c-1.96 1.61-3.5 3.71-4.48 6.09a6.3 6.3 0 0 0-3.99-1.4c-3.57 0-6.44 2.87-6.44 6.44 0 1.54.56 3.01 1.47 4.13h-3.85v-8.19c0-.63-.56-1.19-1.19-1.19H7.98c-.63 0-1.19.56-1.19 1.19v18.76c0 .63.56 1.19 1.19 1.19H31.5c.63 0 1.19-.56 1.19-1.19v-8.96c.28-.14.49-.28.77-.42 1.96 6.16 7.77 10.57 14.56 10.57 8.4 0 15.26-6.86 15.26-15.26-.07-8.47-6.93-15.33-15.33-15.33M33.81 9.45l10.85 9.03h-21.7zm-3.5 24.36h-2.38v-5.88c0-.63.56-1.19 1.19-1.19s1.19.56 1.19 1.19zm2.31 0v-5.88c0-1.96-1.61-3.5-3.5-3.5-1.96 0-3.5 1.61-3.5 3.5v5.88h-2.38V20.86h21.14v12.18c-.84.21-1.61.42-2.31.77zm-7 13.51c0-2.24 1.82-4.13 4.13-4.13 2.24 0 4.13 1.82 4.13 4.13 0 2.24-1.82 4.13-4.13 4.13s-4.13-1.82-4.13-4.13m-7.07 4.13H9.1v-2.38h9.38v2.38zM9.1 53.83h9.38v2.38H9.1zm0-9.45h9.38v2.38H9.1zm0 14.14h9.38v2.38H9.1zm21.21 2.38h-9.45v-2.38h9.38v2.38zm0-7.07v2.38h-9.45v-2.38zm17.64 7.07c-6.23 0-11.41-4.41-12.67-10.29.56-.98.91-2.1.91-3.29 0-1.05-.28-2.03-.7-2.87C37.03 38.99 42 35 47.95 35c7.14 0 12.95 5.81 12.95 12.95S55.09 60.9 47.95 60.9m4.55-18.27-7.07 11.83c-.21.35-.63.56-.98.56-.21 0-.42-.07-.63-.14-.56-.35-.77-1.05-.42-1.61l7.07-11.76c.35-.56 1.05-.77 1.61-.42.56.28.7 1.05.42 1.54m-6.93 1.75c0-1.96-1.61-3.5-3.5-3.5s-3.5 1.61-3.5 3.5 1.61 3.5 3.5 3.5 3.5-1.54 3.5-3.5m-3.5 1.19c-.63 0-1.19-.56-1.19-1.19s.56-1.19 1.19-1.19 1.19.56 1.19 1.19-.56 1.19-1.19 1.19m11.76 2.38c-1.96 0-3.5 1.61-3.5 3.5 0 1.96 1.61 3.5 3.5 3.5s3.5-1.61 3.5-3.5c0-1.96-1.54-3.5-3.5-3.5m0 4.69c-.63 0-1.19-.56-1.19-1.19s.56-1.19 1.19-1.19 1.19.56 1.19 1.19c0 .7-.56 1.19-1.19 1.19M40.88 24.43h-4.69c-.63 0-1.19.56-1.19 1.19v4.69c0 .63.56 1.19 1.19 1.19h4.69c.63 0 1.19-.56 1.19-1.19v-4.69c0-.7-.56-1.19-1.19-1.19m-1.19 4.69h-2.38v-2.38h2.38z"/></svg>
